dist/images/icons/calendar-green.svg

<svg width="22" height="22" viewBox="0 0 22 22" fill="none" xmlns="http://www.w3.org/2000/svg">
<path d="M19.25 6.28566C19.25 5.66051 19.0017 5.06096 18.5596 4.61891C18.1176 4.17686 17.518 3.92852 16.8929 3.92852H16.3036V3.35581C16.3036 3.0387 16.0598 2.76652 15.7426 2.75068C15.663 2.74684 15.5833 2.75922 15.5086 2.78707C15.4338 2.81491 15.3655 2.85764 15.3078 2.91267C15.25 2.9677 15.204 3.03388 15.1726 3.1072C15.1412 3.18052 15.125 3.25946 15.125 3.33923V3.92852H6.875V3.35581C6.875 3.0387 6.63118 2.76652 6.31407 2.75068C6.2344 2.74684 6.15477 2.75922 6.08002 2.78707C6.00527 2.81491 5.93695 2.85764 5.8792 2.91267C5.82145 2.9677 5.77547 3.03388 5.74405 3.1072C5.71264 3.18052 5.69644 3.25946 5.69643 3.33923V3.92852H5.10714C4.48199 3.92852 3.88244 4.17686 3.44039 4.61891C2.99834 5.06096 2.75 5.66051 2.75 6.28566V6.72762C2.75 6.7667 2.76552 6.80417 2.79315 6.8318C2.82078 6.85942 2.85825 6.87495 2.89732 6.87495H19.1027C19.1418 6.87495 19.1792 6.85942 19.2069 6.8318C19.2345 6.80417 19.25 6.7667 19.25 6.72762V6.28566ZM2.75 16.8928C2.75 17.518 2.99834 18.1175 3.44039 18.5596C3.88244 19.0016 4.48199 19.2499 5.10714 19.2499H16.8929C17.518 19.2499 18.1176 19.0016 18.5596 18.5596C19.0017 18.1175 19.25 17.518 19.25 16.8928V8.16401C19.25 8.1347 19.2384 8.1066 19.2176 8.08588C19.1969 8.06516 19.1688 8.05352 19.1395 8.05352H2.86049C2.83119 8.05352 2.80308 8.06516 2.78236 8.08588C2.76164 8.1066 2.75 8.1347 2.75 8.16401V16.8928ZM15.4196 9.23209C15.5945 9.23209 15.7654 9.28393 15.9107 9.38106C16.0561 9.47818 16.1694 9.61624 16.2363 9.77775C16.3032 9.93927 16.3207 10.117 16.2866 10.2885C16.2525 10.4599 16.1683 10.6174 16.0447 10.741C15.9211 10.8647 15.7636 10.9489 15.5921 10.983C15.4206 11.0171 15.2429 10.9996 15.0814 10.9327C14.9199 10.8658 14.7818 10.7525 14.6847 10.6071C14.5876 10.4617 14.5357 10.2908 14.5357 10.116C14.5357 9.88158 14.6288 9.65675 14.7946 9.49098C14.9604 9.32522 15.1852 9.23209 15.4196 9.23209ZM15.4196 12.1785C15.5945 12.1785 15.7654 12.2304 15.9107 12.3275C16.0561 12.4246 16.1694 12.5627 16.2363 12.7242C16.3032 12.8857 16.3207 13.0634 16.2866 13.2349C16.2525 13.4064 16.1683 13.5639 16.0447 13.6875C15.9211 13.8111 15.7636 13.8953 15.5921 13.9294C15.4206 13.9635 15.2429 13.946 15.0814 13.8791C14.9199 13.8122 14.7818 13.6989 14.6847 13.5535C14.5876 13.4082 14.5357 13.2373 14.5357 13.0624C14.5357 12.828 14.6288 12.6032 14.7946 12.4374C14.9604 12.2716 15.1852 12.1785 15.4196 12.1785ZM12.4732 9.23209C12.648 9.23209 12.8189 9.28393 12.9643 9.38106C13.1097 9.47818 13.223 9.61624 13.2899 9.77775C13.3568 9.93927 13.3743 10.117 13.3402 10.2885C13.3061 10.4599 13.2219 10.6174 13.0982 10.741C12.9746 10.8647 12.8171 10.9489 12.6457 10.983C12.4742 11.0171 12.2965 10.9996 12.135 10.9327C11.9734 10.8658 11.8354 10.7525 11.7383 10.6071C11.6411 10.4617 11.5893 10.2908 11.5893 10.116C11.5893 9.88158 11.6824 9.65675 11.8482 9.49098C12.014 9.32522 12.2388 9.23209 12.4732 9.23209ZM12.4732 12.1785C12.648 12.1785 12.8189 12.2304 12.9643 12.3275C13.1097 12.4246 13.223 12.5627 13.2899 12.7242C13.3568 12.8857 13.3743 13.0634 13.3402 13.2349C13.3061 13.4064 13.2219 13.5639 13.0982 13.6875C12.9746 13.8111 12.8171 13.8953 12.6457 13.9294C12.4742 13.9635 12.2965 13.946 12.135 13.8791C11.9734 13.8122 11.8354 13.6989 11.7383 13.5535C11.6411 13.4082 11.5893 13.2373 11.5893 13.0624C11.5893 12.828 11.6824 12.6032 11.8482 12.4374C12.014 12.2716 12.2388 12.1785 12.4732 12.1785ZM12.4732 15.1249C12.648 15.1249 12.8189 15.1768 12.9643 15.2739C13.1097 15.371 13.223 15.5091 13.2899 15.6706C13.3568 15.8321 13.3743 16.0099 13.3402 16.1813C13.3061 16.3528 13.2219 16.5103 13.0982 16.6339C12.9746 16.7575 12.8171 16.8417 12.6457 16.8758C12.4742 16.9099 12.2965 16.8924 12.135 16.8255C11.9734 16.7586 11.8354 16.6453 11.7383 16.5C11.6411 16.3546 11.5893 16.1837 11.5893 16.0089C11.5893 15.7744 11.6824 15.5496 11.8482 15.3838C12.014 15.2181 12.2388 15.1249 12.4732 15.1249ZM9.52679 12.1785C9.70161 12.1785 9.87251 12.2304 10.0179 12.3275C10.1632 12.4246 10.2765 12.5627 10.3434 12.7242C10.4103 12.8857 10.4278 13.0634 10.3937 13.2349C10.3596 13.4064 10.2754 13.5639 10.1518 13.6875C10.0282 13.8111 9.8707 13.8953 9.69923 13.9294C9.52777 13.9635 9.35004 13.946 9.18852 13.8791C9.027 13.8122 8.88895 13.6989 8.79183 13.5535C8.6947 13.4082 8.64286 13.2373 8.64286 13.0624C8.64286 12.828 8.73599 12.6032 8.90175 12.4374C9.06752 12.2716 9.29235 12.1785 9.52679 12.1785ZM9.52679 15.1249C9.70161 15.1249 9.87251 15.1768 10.0179 15.2739C10.1632 15.371 10.2765 15.5091 10.3434 15.6706C10.4103 15.8321 10.4278 16.0099 10.3937 16.1813C10.3596 16.3528 10.2754 16.5103 10.1518 16.6339C10.0282 16.7575 9.8707 16.8417 9.69923 16.8758C9.52777 16.9099 9.35004 16.8924 9.18852 16.8255C9.027 16.7586 8.88895 16.6453 8.79183 16.5C8.6947 16.3546 8.64286 16.1837 8.64286 16.0089C8.64286 15.7744 8.73599 15.5496 8.90175 15.3838C9.06752 15.2181 9.29235 15.1249 9.52679 15.1249ZM6.58036 12.1785C6.75518 12.1785 6.92608 12.2304 7.07144 12.3275C7.2168 12.4246 7.3301 12.5627 7.397 12.7242C7.4639 12.8857 7.48141 13.0634 7.4473 13.2349C7.41319 13.4064 7.32901 13.5639 7.20539 13.6875C7.08177 13.8111 6.92427 13.8953 6.7528 13.9294C6.58134 13.9635 6.40361 13.946 6.24209 13.8791C6.08058 13.8122 5.94252 13.6989 5.8454 13.5535C5.74827 13.4082 5.69643 13.2373 5.69643 13.0624C5.69643 12.828 5.78956 12.6032 5.95533 12.4374C6.12109 12.2716 6.34592 12.1785 6.58036 12.1785ZM6.58036 15.1249C6.75518 15.1249 6.92608 15.1768 7.07144 15.2739C7.2168 15.371 7.3301 15.5091 7.397 15.6706C7.4639 15.8321 7.48141 16.0099 7.4473 16.1813C7.41319 16.3528 7.32901 16.5103 7.20539 16.6339C7.08177 16.7575 6.92427 16.8417 6.7528 16.8758C6.58134 16.9099 6.40361 16.8924 6.24209 16.8255C6.08058 16.7586 5.94252 16.6453 5.8454 16.5C5.74827 16.3546 5.69643 16.1837 5.69643 16.0089C5.69643 15.7744 5.78956 15.5496 5.95533 15.3838C6.12109 15.2181 6.34592 15.1249 6.58036 15.1249Z" fill="#8DD3BB"/>
</svg>

<svg width="22" height="22" fill="none" xmlns="http://www.w3.org/2000/svg"><path d="M19.25 6.286a2.357 2.357 0 00-2.357-2.357h-.59v-.573a.6.6 0 00-.56-.605.589.589 0 00-.618.588v.59h-8.25v-.573a.6.6 0 00-.56-.605.59.59 0 00-.619.588v.59h-.589A2.357 2.357 0 002.75 6.286v.442a.147.147 0 00.147.147h16.206a.147.147 0 00.147-.147v-.442zM2.75 16.893a2.357 2.357 0 002.357 2.357h11.786a2.357 2.357 0 002.357-2.357V8.164a.11.11 0 00-.11-.11H2.86a.11.11 0 00-.11.11v8.729zm12.67-7.66a.884.884 0 110 1.766.884.884 0 010-1.767zm0 2.945a.884.884 0 110 1.768.884.884 0 010-1.768zm-2.947-2.946a.884.884 0 110 1.768.884.884 0 010-1.768zm0 2.947a.884.884 0 110 1.768.884.884 0 010-1.768zm0 2.946a.884.884 0 110 1.769.884.884 0 010-1.77zm-2.946-2.947a.884.884 0 110 1.77.884.884 0 010-1.77zm0 2.947a.884.884 0 110 1.769.884.884 0 010-1.77zM6.58 12.178a.884.884 0 110 1.769.884.884 0 010-1.768zm0 2.947a.884.884 0 110 1.768.884.884 0 010-1.768z" fill="#8DD3BB"/></svg>
